X:450
T: Cock Your Pistol Charlie
S: "Roche Collection of Traditional Irish Music" [II/21/243]
L: 1/8
M: 6/8
R: jig
K: Edor
E2e e2f | g2f e2c | d2B A2F | D2E F2D |
E2e e2f | g2f e2c | d2B A2F | E3 E3 :|
E2B B2A | B2A F2A | d2B A2F | D2E F2D |
E2B B2A | B2A F2A | Bcd A2F | E3 E3 :|
